build/img/icons/vk-icon.svg

<svg width="27" height="27" viewBox="0 0 27 27" fill="none" xmlns="http://www.w3.org/2000/svg">
<path d="M19.4553 15.7089C18.3436 14.6453 18.2642 14.6453 19.2171 13.4181C20.4082 11.8637 21.9964 9.90016 20.567 9.90016H17.9465C17.4701 9.90016 17.3907 10.2274 17.2318 10.6365C16.5966 12.1909 15.326 14.2362 14.8496 13.909C14.3731 13.5817 14.6113 12.3545 14.6113 10.391C14.6907 10.1456 14.6113 9.90016 14.4525 9.73654C14.2937 9.57291 14.0555 9.40929 13.8172 9.40929C13.4202 9.32747 13.0231 9.24566 12.6261 9.24566C11.1173 9.24566 10.085 9.90016 10.6409 9.98198C11.6732 10.1456 11.5938 12.4364 11.3555 13.4181C10.9585 15.1362 9.37031 12.1091 8.65563 10.5547C8.57622 10.1456 8.25858 9.90016 7.86153 9.90016H5.79689C5.47925 9.90016 5.24102 9.98198 5.24102 10.2274C5.24102 10.6365 7.22626 14.6453 9.05267 16.6906C10.8791 18.6541 12.7055 18.4905 13.9761 18.4905C14.1349 18.4905 14.2937 18.4087 14.3731 18.3269C14.4525 18.2451 14.5319 18.0814 14.5319 17.9178C14.5319 16.6088 15.0084 15.9543 15.8819 16.8542C16.8348 17.836 17.073 18.4905 18.2642 18.4905H20.4082C20.9641 18.4905 21.1229 18.3269 21.1229 18.0814C21.2023 17.5088 20.2494 16.4452 19.4553 15.7089ZM13.8172 0.000819515C21.2023 0.164445 27.0786 6.3004 26.9992 13.7454C26.9198 21.1903 20.8053 27.0808 13.4202 26.999C5.95571 26.9172 0 20.9449 0 13.4999C0.0794094 5.97315 6.27334 -0.0809933 13.8172 0.000819515Z" fill="#CDCDCD"/>
</svg>

<svg width="27" height="27" fill="none" xmlns="http://www.w3.org/2000/svg"><path d="M19.455 15.709c-1.111-1.064-1.19-1.064-.238-2.29 1.191-1.555 2.78-3.519 1.35-3.519h-2.62c-.477 0-.556.327-.715.736-.635 1.555-1.906 3.6-2.382 3.273-.477-.327-.239-1.555-.239-3.518a.65.65 0 00-.159-.654c-.158-.164-.396-.328-.635-.328-.397-.082-.794-.163-1.19-.163-1.51 0-2.542.654-1.986.736 1.032.164.953 2.454.714 3.436-.396 1.718-1.985-1.309-2.7-2.863a.779.779 0 00-.793-.655H5.797c-.318 0-.556.082-.556.327 0 .41 1.985 4.418 3.812 6.464 1.826 1.963 3.652 1.8 4.923 1.8a.597.597 0 00.397-.164.635.635 0 00.159-.41c0-1.308.476-1.963 1.35-1.063.953.982 1.191 1.637 2.382 1.637h2.144c.556 0 .715-.164.715-.41.08-.572-.874-1.636-1.668-2.372zM13.817 0C21.202.164 27.08 6.3 27 13.745 26.92 21.19 20.805 27.081 13.42 27 5.956 26.917 0 20.945 0 13.499.08 5.974 6.273-.08 13.817.002z" fill="#CDCDCD"/></svg>
